gtk-icons/Papirus-GTK/16x16/actions/office-chart-pie.svg

<?xml version="1.0" encoding="UTF-8" standalone="no"?>
<!-- Created with Inkscape (http://www.inkscape.org/) -->

<svg
   xmlns:dc="http://purl.org/dc/elements/1.1/"
   xmlns:cc="http://creativecommons.org/ns#"
   xmlns:rdf="http://www.w3.org/1999/02/22-rdf-syntax-ns#"
   xmlns:svg="http://www.w3.org/2000/svg"
   xmlns="http://www.w3.org/2000/svg"
   xmlns:sodipodi="http://sodipodi.sourceforge.net/DTD/sodipodi-0.dtd"
   xmlns:inkscape="http://www.inkscape.org/namespaces/inkscape"
   width="16"
   height="16"
   id="svg3049"
   version="1.1"
   inkscape:version="0.91 r13725"
   sodipodi:docname="office-chart-pie.svg"
   inkscape:export-filename="/home/uri/.kde/share/icons/NITRUX-KDE/16x16/actions/view-right-new.png"
   inkscape:export-xdpi="30"
   inkscape:export-ydpi="30">
  <defs
     id="defs3051">
    <style
       type="text/css"
       id="current-color-scheme">
      .ColorScheme-Text {
        color:#4d4d4d;
      }
      .ColorScheme-Background {
        color:#eff0f1;
      }
      .ColorScheme-Highlight {
        color:#3daee9;
      }
      .ColorScheme-ViewText {
        color:#31363b;
      }
      .ColorScheme-ViewBackground {
        color:#fcfcfc;
      }
      .ColorScheme-ViewHover {
        color:#93cee9;
      }
      .ColorScheme-ViewFocus{
        color:#3daee9;
      }
      .ColorScheme-ButtonText {
        color:#31363b;
      }
      .ColorScheme-ButtonBackground {
        color:#eff0f1;
      }
      .ColorScheme-ButtonHover {
        color:#93cee9;
      }
      .ColorScheme-ButtonFocus{
        color:#3daee9;
      }
      </style>
  </defs>
  <sodipodi:namedview
     id="base"
     pagecolor="#ffffff"
     bordercolor="#666666"
     borderopacity="1.0"
     inkscape:pageopacity="0.0"
     inkscape:pageshadow="2"
     inkscape:zoom="13.939513"
     inkscape:cx="3.11161"
     inkscape:cy="5.1653699"
     inkscape:document-units="px"
     inkscape:current-layer="layer1"
     showgrid="false"
     fit-margin-top="0"
     fit-margin-left="0"
     fit-margin-right="0"
     fit-margin-bottom="0"
     inkscape:window-width="1535"
     inkscape:window-height="839"
     inkscape:window-x="55"
     inkscape:window-y="30"
     inkscape:window-maximized="0"
     inkscape:showpageshadow="false"
     borderlayer="true"
     inkscape:snap-bbox="true"
     inkscape:snap-global="true"
     inkscape:object-nodes="true"
     showguides="false"
     inkscape:guide-bbox="true">
    <inkscape:grid
       type="xygrid"
       id="grid4085" />
    <sodipodi:guide
       position="2.0000044,14.00003"
       orientation="12,0"
       id="guide4075" />
    <sodipodi:guide
       position="14.000004,2.0000296"
       orientation="-12,0"
       id="guide4079" />
    <sodipodi:guide
       position="14.000004,14.00003"
       orientation="0,-12"
       id="guide4081" />
    <sodipodi:guide
       position="8,2"
       orientation="0,1"
       id="guide4178" />
  </sodipodi:namedview>
  <metadata
     id="metadata3054">
    <rdf:RDF>
      <cc:Work
         rdf:about="">
        <dc:format>image/svg+xml</dc:format>
        <dc:type
           rdf:resource="http://purl.org/dc/dcmitype/StillImage" />
        <dc:title />
      </cc:Work>
    </rdf:RDF>
  </metadata>
  <g
     inkscape:label="Capa 1"
     inkscape:groupmode="layer"
     id="layer1"
     transform="translate(-421.71429,-531.79074)">
    <path
       style="fill:#000000;fill-opacity:1;stroke:none;opacity:0.5"
       d="M 8 2 A 6.0000019 6.0000148 0 0 0 2 8 A 6.0000019 6.0000148 0 0 0 8 14 A 6.0000019 6.0000148 0 0 0 14 8 A 6.0000019 6.0000148 0 0 0 8 2 z M 8 3 L 8 8 L 13 8 A 5 5 0 0 0 12.978516 7.5585938 A 5 5 0 0 1 13 8 A 5 5 0 0 1 8 13 A 5 5 0 0 1 3 8 A 5 5 0 0 1 8 3 z M 8.4414062 3.0214844 A 5 5 0 0 1 8.6503906 3.046875 A 5 5 0 0 0 8.4414062 3.0214844 z M 8.9257812 3.0898438 A 5 5 0 0 1 9.1621094 3.1425781 A 5 5 0 0 0 8.9257812 3.0898438 z M 9.4042969 3.203125 A 5 5 0 0 1 9.6542969 3.2871094 A 5 5 0 0 0 9.4042969 3.203125 z M 9.875 3.3671875 A 5 5 0 0 1 10.136719 3.4863281 A 5 5 0 0 0 9.875 3.3671875 z M 10.314453 3.5722656 A 5 5 0 0 1 10.568359 3.7167969 A 5 5 0 0 0 10.314453 3.5722656 z M 10.755859 3.8320312 A 5 5 0 0 1 10.976562 3.9902344 A 5 5 0 0 0 10.755859 3.8320312 z M 11.15625 4.1269531 A 5 5 0 0 1 11.355469 4.3007812 A 5 5 0 0 0 11.15625 4.1269531 z M 11.533203 4.4667969 A 5 5 0 0 1 11.699219 4.6445312 A 5 5 0 0 0 11.533203 4.4667969 z M 11.873047 4.84375 A 5 5 0 0 1 12.009766 5.0234375 A 5 5 0 0 0 11.873047 4.84375 z M 12.167969 5.2441406 A 5 5 0 0 1 12.283203 5.4316406 A 5 5 0 0 0 12.167969 5.2441406 z M 12.427734 5.6855469 A 5 5 0 0 1 12.513672 5.8632812 A 5 5 0 0 0 12.427734 5.6855469 z M 12.632812 6.125 A 5 5 0 0 1 12.712891 6.3457031 A 5 5 0 0 0 12.632812 6.125 z M 12.796875 6.5957031 A 5 5 0 0 1 12.857422 6.8378906 A 5 5 0 0 0 12.796875 6.5957031 z M 12.910156 7.0742188 A 5 5 0 0 1 12.953125 7.3496094 A 5 5 0 0 0 12.910156 7.0742188 z "
       transform="translate(421.71429,531.79074)"
       id="path4139"
       class="ColorScheme-Text" />
  </g>
</svg>

<?xml version="1.0" encoding="UTF-8" standalone="no"?>
<!-- Created with Inkscape (http://www.inkscape.org/) -->
<svg id="svg3049" xmlns:rdf="http://www.w3.org/1999/02/22-rdf-syntax-ns#" xmlns="http://www.w3.org/2000/svg" height="16" width="16" version="1.1" xmlns:cc="http://creativecommons.org/ns#" xmlns:dc="http://purl.org/dc/elements/1.1/">
 <defs id="defs3051">
  <style id="current-color-scheme" type="text/css">.ColorScheme-Text {
        color:#4d4d4d;
      }
      .ColorScheme-Background {
        color:#eff0f1;
      }
      .ColorScheme-Highlight {
        color:#3daee9;
      }
      .ColorScheme-ViewText {
        color:#31363b;
      }
      .ColorScheme-ViewBackground {
        color:#fcfcfc;
      }
      .ColorScheme-ViewHover {
        color:#93cee9;
      }
      .ColorScheme-ViewFocus{
        color:#3daee9;
      }
      .ColorScheme-ButtonText {
        color:#31363b;
      }
      .ColorScheme-ButtonBackground {
        color:#eff0f1;
      }
      .ColorScheme-ButtonHover {
        color:#93cee9;
      }
      .ColorScheme-ButtonFocus{
        color:#3daee9;
      }</style>
 </defs>
 <metadata id="metadata3054">
  <rdf:RDF>
   <cc:Work rdf:about="">
    <dc:format>image/svg+xml</dc:format>
    <dc:type rdf:resource="http://purl.org/dc/dcmitype/StillImage"/>
    <dc:title/>
   </cc:Work>
  </rdf:RDF>
 </metadata>
 <g id="layer1" transform="translate(-421.71 -531.79)">
  <path id="path4139" opacity=".5" d="m8 2a6 6 0 0 0 -6 6 6 6 0 0 0 6 6 6 6 0 0 0 6 -6 6 6 0 0 0 -6 -6zm0 1v5h5a5 5 0 0 0 -0.021 -0.4414 5 5 0 0 1 0.021 0.4414 5 5 0 0 1 -5 5 5 5 0 0 1 -5 -5 5 5 0 0 1 5 -5zm0.4414 0.0215a5 5 0 0 1 0.209 0.0254 5 5 0 0 0 -0.209 -0.0254zm0.4844 0.0683a5 5 0 0 1 0.2363 0.0528 5 5 0 0 0 -0.2363 -0.0528zm0.4785 0.1133a5 5 0 0 1 0.25 0.084 5 5 0 0 0 -0.25 -0.084zm0.4707 0.1641a5 5 0 0 1 0.262 0.1191 5 5 0 0 0 -0.262 -0.1191zm0.439 0.2051a5 5 0 0 1 0.254 0.1445 5 5 0 0 0 -0.254 -0.1445zm0.442 0.2597a5 5 0 0 1 0.221 0.1582 5 5 0 0 0 -0.221 -0.1582zm0.4 0.295a5 5 0 0 1 0.199 0.1738 5 5 0 0 0 -0.199 -0.1738zm0.377 0.3398a5 5 0 0 1 0.166 0.1777 5 5 0 0 0 -0.166 -0.1777zm0.34 0.377a5 5 0 0 1 0.137 0.1796 5 5 0 0 0 -0.137 -0.1796zm0.295 0.4003a5 5 0 0 1 0.115 0.1875 5 5 0 0 0 -0.115 -0.1875zm0.26 0.4414a5 5 0 0 1 0.086 0.1778 5 5 0 0 0 -0.086 -0.1778zm0.205 0.4395a5 5 0 0 1 0.08 0.2207 5 5 0 0 0 -0.08 -0.2207zm0.164 0.4707a5 5 0 0 1 0.06 0.2422 5 5 0 0 0 -0.06 -0.2422zm0.113 0.4785a5 5 0 0 1 0.043 0.2754 5 5 0 0 0 -0.043 -0.2754z" transform="translate(421.71 531.79)" class="ColorScheme-Text"/>
 </g>
</svg>
